src/ui/assets/img/key.svg

<svg width="14" height="14" viewBox="0 0 14 14" fill="none" xmlns="http://www.w3.org/2000/svg">
    <path fill-rule="evenodd" clip-rule="evenodd" d="M10.3991 1.28365e-05C9.50751 0.00235226 8.61319 0.323682 7.92069 0.969799C6.76718 2.04553 6.51031 3.69374 7.17462 5.02301L2.52446 9.35971L1.0221 10.7622L0.102291 11.6225C0.0714503 11.6514 0.0428175 11.6889 0.0256314 11.727C0.00846153 11.7651 0.000988566 11.8047 8.91943e-05 11.8463C-0.000810178 11.8879 0.00502756 11.9319 0.0205295 11.9707C0.0360477 12.0095 0.0625056 12.045 0.0920704 12.0751L1.16518 13.1692C1.1948 13.1993 1.23329 13.2221 1.27249 13.2389C1.3117 13.2556 1.35234 13.2628 1.39513 13.2637C1.43796 13.2653 1.48297 13.2589 1.52289 13.2438C1.56279 13.2287 1.59927 13.203 1.63021 13.1742L2.31494 12.5376L3.6589 13.9003C3.68854 13.9303 3.727 13.9582 3.7662 13.9749C3.80541 13.9916 3.84605 13.9989 3.88884 13.9998C3.93165 14.0014 3.97674 13.995 4.0166 13.9799C4.05649 13.9648 4.09302 13.9391 4.12392 13.9102L5.62627 12.5078C5.65719 12.4789 5.68572 12.4415 5.70292 12.4034C5.72011 12.3652 5.72758 12.3257 5.72847 12.284C5.72937 12.2423 5.72359 12.1985 5.70803 12.1597C5.69246 12.1208 5.66613 12.0853 5.6365 12.0552L4.29255 10.6925L8.70764 6.57467C10.0437 7.275 11.7444 7.09339 12.8979 6.01766C14.3277 4.68357 14.3711 2.46521 13.0001 1.07424C12.2932 0.357009 11.3482 -0.00247618 10.3991 1.28365e-05ZM10.4042 1.45221C10.9592 1.4505 11.5139 1.6606 11.927 2.07884C12.7272 2.89181 12.694 4.18911 11.8605 4.9683C11.0265 5.74813 9.69262 5.71965 8.89161 4.90863C8.0901 4.0971 8.11937 2.79851 8.95293 2.01916C8.95314 2.019 8.95271 2.01438 8.95293 2.01419C9.35742 1.63808 9.88284 1.45381 10.4042 1.45221V1.45221Z" fill="#DAE1E9"/>
</svg>

<svg fill="none" height="14" width="14" xmlns="http://www.w3.org/2000/svg"><path clip-rule="evenodd" d="M10.4 0a3.638 3.638 0 0 0-2.48.97 3.43 3.43 0 0 0-.745 4.053L2.525 9.36l-1.503 1.402-.92.86a.301.301 0 0 0-.102.224c0 .042.005.086.02.125a.327.327 0 0 0 .072.104l1.073 1.094a.336.336 0 0 0 .23.095.332.332 0 0 0 .128-.02.336.336 0 0 0 .107-.07l.685-.636L3.659 13.9a.325.325 0 0 0 .23.1.332.332 0 0 0 .128-.02.335.335 0 0 0 .107-.07l1.502-1.402a.301.301 0 0 0 .102-.224.32.32 0 0 0-.02-.124.326.326 0 0 0-.071-.105l-1.344-1.362 4.415-4.118c1.336.7 3.036.518 4.19-.557A3.434 3.434 0 0 0 13 1.074 3.625 3.625 0 0 0 10.4 0zm.004 1.452a2.126 2.126 0 0 1 1.523.627c.8.813.767 2.11-.066 2.89a2.146 2.146 0 0 1-2.97-.06 2.01 2.01 0 0 1 .062-2.89v-.005c.404-.376.93-.56 1.451-.562z" fill="#dae1e9" fill-rule="evenodd"/></svg>
